lib/logo_tmp/nrk-logo-nrk-radio-with-bg.svg

<svg width="94" height="24" viewBox="0 0 94 24" fill="none" xmlns="http://www.w3.org/2000/svg">
<rect x="6.10352e-05" width="94" height="24" fill="#0A2343"/>
<path d="M6.00006 18V6.00109H9.93725V18H6.00006ZM15.2939 7.91078L17.5581 18H13.2492L10.5455 6.00109H12.9622C13.5164 5.9939 14.0541 6.18925 14.4746 6.55039C14.8957 6.89638 15.185 7.3767 15.2939 7.91078ZM18.1496 18V6.00109H22.0868V18H18.1496ZM25.0605 10.5641C24.6363 10.5682 24.2188 10.4572 23.8526 10.243C23.4913 10.0341 23.1912 9.73396 22.9823 9.3726C22.7678 9.00633 22.6568 8.58876 22.661 8.16432C22.6562 7.74246 22.7673 7.32738 22.9823 6.96443C23.1934 6.60699 23.4932 6.31009 23.8526 6.10252C24.2189 5.8885 24.6363 5.77751 25.0605 5.78138C25.4823 5.77684 25.8972 5.88793 26.2603 6.10252C26.6161 6.31191 26.9127 6.60856 27.1221 6.96443C27.3369 7.32748 27.448 7.74249 27.4434 8.16432C27.4473 8.58873 27.3363 9.00623 27.1221 9.3726C26.9149 9.73238 26.618 10.0323 26.2603 10.243C25.8972 10.458 25.4825 10.5691 25.0605 10.5641ZM28.0517 18V6.00109H31.9892V18H28.0517ZM36.9738 12.5582C36.9849 12.5699 37.0693 12.7079 37.2272 12.9723C37.3851 13.2367 37.5907 13.5747 37.844 13.9863C38.0975 14.3977 38.3649 14.8343 38.6464 15.296C38.9278 15.7577 39.1927 16.1944 39.4409 16.6058C39.6882 17.0172 39.9698 17.4819 40.2858 18H35.9599C35.6893 17.5606 35.4442 17.1635 35.2245 16.8086C35.0049 16.4537 34.7714 16.0706 34.5239 15.6594C34.2759 15.2485 34.0307 14.8485 33.7883 14.4595C33.5459 14.0704 33.3376 13.7296 33.1633 13.4371C32.9883 13.1443 32.8671 12.9471 32.7997 12.8455C32.6326 12.5934 32.5337 12.3023 32.5127 12.0005C32.5295 11.7109 32.6227 11.431 32.7828 11.1891C32.8504 11.0764 32.9743 10.8764 33.1546 10.5891C33.3348 10.3018 33.5461 9.96105 33.7883 9.56672C34.0305 9.17239 34.2757 8.7696 34.5239 8.35837C34.7721 7.94715 35.0056 7.56124 35.2245 7.20071C35.4446 6.84055 35.6897 6.44059 35.9599 6.00081H40.2858L36.9397 11.4595C36.8361 11.6216 36.7778 11.8083 36.7707 12.0005C36.7818 12.2023 36.8529 12.3963 36.9738 12.5582Z" fill="white"/>
<path d="M50.8832 13.0512C51.108 13.0168 51.3299 12.965 51.5467 12.8963C51.986 12.7597 52.3918 12.5323 52.7378 12.229C53.0824 11.9213 53.3536 11.5403 53.5317 11.114C53.732 10.6237 53.8297 10.0976 53.819 9.56815C53.8265 8.95051 53.6967 8.33888 53.4389 7.77758C53.1725 7.2231 52.7339 6.76969 52.1886 6.48492C51.4611 6.13155 50.6567 5.96596 49.8488 6.00336H45.0001V17.9985H46.7571V13.4032H49.3417L52.3322 17.9985H54.3931L51.5886 13.8427L50.8832 13.0512ZM50.9131 7.70127C51.263 7.83465 51.5556 8.08562 51.7407 8.41112C51.9342 8.78942 52.0273 9.21112 52.011 9.63573C52.0321 10.1057 51.9178 10.5719 51.6818 10.9788C51.4584 11.3254 51.1253 11.5871 50.7357 11.7222C50.2658 11.8837 49.7711 11.961 49.2744 11.9503H46.7571V7.47318H49.4768C49.9657 7.45691 50.4533 7.53434 50.9131 7.70127Z" fill="#8BB5EB"/>
<path d="M63.4993 16.9344C63.3758 16.9457 63.2513 16.9271 63.1366 16.88C63.0219 16.8329 62.9203 16.7587 62.8404 16.6638C62.6837 16.3931 62.6185 16.0791 62.6546 15.7684L62.6883 12.2884C62.692 11.9235 62.6466 11.5597 62.5532 11.2069C62.471 10.8976 62.3336 10.6057 62.1477 10.3453C61.9597 10.0907 61.721 9.87792 61.4466 9.72021C61.1278 9.5392 60.783 9.40819 60.4244 9.33187C59.986 9.23714 59.5383 9.19181 59.0898 9.19672C58.7339 9.19648 58.3784 9.21896 58.0254 9.26402C57.6919 9.30597 57.3617 9.37087 57.0371 9.45829C56.7361 9.54007 56.44 9.63888 56.1501 9.75424L55.9474 11.1903C56.229 11.0889 56.4966 11.0044 56.7502 10.9368C57.0038 10.8693 57.2487 10.813 57.4848 10.7679C57.7165 10.7236 57.9506 10.6926 58.1859 10.6753C58.4166 10.658 58.6447 10.6494 58.8701 10.6496C59.2146 10.6424 59.5585 10.6822 59.8923 10.7679C60.1358 10.8289 60.3597 10.951 60.5427 11.1227C60.7057 11.2898 60.8222 11.4965 60.8806 11.7224C60.9527 12.0011 60.9867 12.2882 60.9819 12.5759L60.98 12.9997L59.0053 13.1334C58.3299 13.1523 57.6645 13.3014 57.0455 13.5724C56.5824 13.7751 56.1826 14.0991 55.8883 14.5101C55.6386 14.8759 55.506 15.3089 55.5081 15.7518C55.505 16.1674 55.6067 16.577 55.8038 16.9429C56.0104 17.3187 56.3214 17.6268 56.6992 17.8298C57.1601 18.0696 57.6752 18.186 58.1944 18.1677C58.6809 18.1789 59.1651 18.0987 59.622 17.9312C60.017 17.7767 60.3785 17.5472 60.6864 17.2554C60.8032 17.1433 60.9141 17.0251 61.0186 16.9015C61.0515 17.0764 61.1133 17.2445 61.2016 17.3991C61.3521 17.6578 61.5837 17.8596 61.8605 17.9734C62.1664 18.0963 62.4938 18.1567 62.8235 18.1508C62.9248 18.1508 63.0234 18.148 63.1191 18.1424C63.2132 18.137 63.3065 18.1229 63.3979 18.1002C63.488 18.0776 63.5694 18.0579 63.6429 18.041C63.7091 18.0262 63.774 18.0065 63.8372 17.9819L64.023 16.8499C63.9297 16.882 63.8335 16.9046 63.7358 16.9175C63.6574 16.9281 63.5784 16.9337 63.4993 16.9344ZM60.6864 16.1742C60.5032 16.319 60.3049 16.4436 60.095 16.5459C59.8861 16.6476 59.6646 16.7215 59.4364 16.7655C59.1997 16.8113 58.9592 16.8339 58.7181 16.8331C58.4428 16.8409 58.169 16.789 57.9156 16.681C57.7094 16.5916 57.5355 16.4413 57.4172 16.2502C57.3002 16.0477 57.2417 15.8166 57.2483 15.5828C57.232 15.3012 57.3092 15.0221 57.4679 14.7888C57.6519 14.5743 57.9012 14.426 58.1775 14.3665C58.6092 14.2649 59.0522 14.2195 59.4956 14.2313H60.9747L60.967 15.9083C60.8812 16.0047 60.7873 16.0938 60.6864 16.1742Z" fill="#8BB5EB"/>
<path d="M71.4912 9.60669C71.474 9.59994 71.458 9.59173 71.4405 9.58497C71.1247 9.46605 70.7999 9.37283 70.4691 9.30621C70.0824 9.23006 69.689 9.19338 69.2949 9.19671C68.5568 9.19218 67.8308 9.38463 67.1918 9.75422C66.5322 10.1378 65.9914 10.6961 65.6291 11.3676C65.2132 12.161 65.0095 13.0485 65.0377 13.9438C65.0184 14.7168 65.1713 15.4843 65.4855 16.1908C65.7596 16.7942 66.2066 17.3028 66.7698 17.6522C67.3753 18.0086 68.069 18.1872 68.7714 18.1675C69.2024 18.1701 69.6316 18.1132 70.047 17.9985C70.461 17.8797 70.8562 17.7034 71.2211 17.4747C71.3476 17.3967 71.4746 17.3092 71.6007 17.2177L71.8127 17.9985H73.2147V5.26001L71.4914 5.49656L71.4912 9.60669ZM70.5873 16.554C70.2021 16.7058 69.7932 16.7888 69.3793 16.7992C68.8966 16.8133 68.4187 16.6996 67.994 16.4695C67.5989 16.236 67.2906 15.8801 67.1155 15.4558C66.8963 14.9114 66.7928 14.3273 66.8114 13.7408C66.7917 13.1399 66.9071 12.5424 67.1493 11.9922C67.3556 11.5457 67.6949 11.174 68.1207 10.9278C68.584 10.6756 69.1058 10.5503 69.6331 10.5646C69.9044 10.564 70.1754 10.5838 70.4437 10.6238C70.7101 10.665 70.9728 10.7272 71.2293 10.8099C71.3118 10.836 71.4027 10.871 71.4912 10.9031V16.1099C71.2037 16.2852 70.9009 16.4338 70.5865 16.554H70.5873Z" fill="#8BB5EB"/>
<path d="M75.8492 17.9985H77.5724V9.21334L75.8492 9.46673V17.9985Z" fill="#8BB5EB"/>
<path d="M77.3274 5.67392C77.1521 5.56674 76.95 5.5111 76.7445 5.5134C76.5365 5.51177 76.332 5.5673 76.1533 5.67392C75.9771 5.7771 75.8291 5.92218 75.7225 6.09628C75.6153 6.27166 75.5597 6.47366 75.5619 6.67916C75.5603 6.88724 75.6158 7.09175 75.7225 7.27043C75.8256 7.44725 75.9744 7.59312 76.1533 7.69279C76.3337 7.79427 76.5375 7.84671 76.7445 7.84485C76.9489 7.84735 77.1503 7.79483 77.3274 7.69279C77.5013 7.59235 77.6444 7.4463 77.7413 7.27043C77.8429 7.09003 77.8953 6.88618 77.8934 6.67916C77.8958 6.47476 77.8433 6.27344 77.7413 6.09628C77.641 5.923 77.4986 5.77776 77.3274 5.67392Z" fill="#8BB5EB"/>
<path d="M87.844 11.2661C87.5074 10.6202 86.9872 10.0882 86.3491 9.73706C85.6451 9.36322 84.8567 9.17714 84.0599 9.19673C83.2556 9.17829 82.4605 9.37048 81.7535 9.75425C81.1008 10.1195 80.5671 10.6648 80.2161 11.3252C79.8348 12.0662 79.646 12.8912 79.667 13.7242C79.6455 14.5508 79.8222 15.3705 80.1823 16.1148C80.5059 16.7646 81.0222 17.2986 81.6606 17.644C82.3479 18.0039 83.115 18.1841 83.8907 18.1675C84.7026 18.1836 85.5053 17.9916 86.2221 17.6099C86.8915 17.2449 87.4404 16.6932 87.802 16.0218C88.1943 15.2722 88.3891 14.4349 88.368 13.5891C88.3871 12.7834 88.2072 11.9855 87.844 11.2661ZM86.2474 15.3968C86.0577 15.8358 85.7361 16.2049 85.327 16.4527C84.916 16.688 84.449 16.8077 83.9754 16.7993C83.5111 16.8108 83.0533 16.6875 82.6576 16.4442C82.2661 16.184 81.9605 15.8138 81.7791 15.3801C81.5492 14.8236 81.44 14.2247 81.4584 13.6228C81.4384 13.0374 81.5479 12.4547 81.7791 11.9165C81.9687 11.4935 82.2844 11.1394 82.683 10.9028C83.1092 10.6682 83.5904 10.5516 84.0767 10.5649C84.4565 10.5555 84.8339 10.6275 85.1834 10.7761C85.4895 10.9143 85.7566 11.1261 85.9608 11.3928C86.1785 11.6827 86.3363 12.013 86.4251 12.3645C86.5308 12.7754 86.5819 13.1985 86.5772 13.6228C86.5969 14.231 86.4844 14.8363 86.2474 15.3968Z" fill="#8BB5EB"/>
</svg>

<svg xmlns="http://www.w3.org/2000/svg" viewBox="0 0 94 24"><path fill="#0A2343" d="M0 0h94v24H0z"/><path fill="#fff" d="M6 18V6.001h3.937V18H6Zm9.294-10.09L17.558 18H13.25L10.545 6.001h2.417a2.276 2.276 0 0 1 1.513.55c.42.345.71.826.819 1.36ZM18.15 18V6.001h3.937V18H18.15Zm6.91-7.436a2.383 2.383 0 0 1-2.4-2.4 2.303 2.303 0 0 1 .322-1.2 2.411 2.411 0 0 1 3.278-.861c.356.209.653.506.862.861.215.363.326.778.321 1.2a2.4 2.4 0 0 1-1.183 2.079 2.3 2.3 0 0 1-1.2.321ZM28.053 18V6.001h3.937V18h-3.937Zm8.922-5.442c.01.012.095.15.253.414.158.265.364.603.617 1.014a327.152 327.152 0 0 1 1.597 2.62c.247.411.529.876.845 1.394H35.96c-.27-.44-.516-.837-.736-1.191-.22-.355-.453-.738-.7-1.15-.248-.41-.493-.81-.736-1.2-.242-.389-.45-.73-.625-1.022-.175-.293-.296-.49-.363-.591a1.75 1.75 0 0 1-.287-.845c.017-.29.11-.57.27-.812.067-.113.191-.313.372-.6a182.106 182.106 0 0 0 1.37-2.23c.247-.412.48-.798.7-1.158L35.96 6h4.326l-3.346 5.458a1.078 1.078 0 0 0-.17.542c.012.201.083.395.204.557Z"/><path fill="#8BB5EB" d="M50.883 13.051a4.4 4.4 0 0 0 .664-.155c.439-.136.845-.364 1.19-.667.345-.308.617-.689.795-1.115.2-.49.298-1.016.287-1.546a4.169 4.169 0 0 0-.38-1.79 2.851 2.851 0 0 0-1.25-1.293 4.843 4.843 0 0 0-2.34-.482H45v11.995h1.757v-4.595h2.585l2.99 4.595h2.061l-2.804-4.155-.706-.792Zm.03-5.35c.35.134.643.385.828.71.193.378.286.8.27 1.225.021.47-.093.936-.33 1.343a1.845 1.845 0 0 1-.945.743c-.47.162-.965.239-1.462.228h-2.517V7.473h2.72c.489-.016.976.061 1.436.228ZM63.5 16.934a.77.77 0 0 1-.66-.27 1.453 1.453 0 0 1-.185-.896l.033-3.48a4.065 4.065 0 0 0-.135-1.081 2.658 2.658 0 0 0-.405-.862 2.29 2.29 0 0 0-.701-.625 3.58 3.58 0 0 0-1.023-.388 6.008 6.008 0 0 0-1.334-.135c-.356 0-.712.022-1.065.067a7.307 7.307 0 0 0-.988.194c-.3.082-.597.18-.887.296l-.203 1.436a9.92 9.92 0 0 1 1.538-.422c.232-.044.466-.075.7-.093.232-.017.46-.026.685-.025.345-.008.689.032 1.022.118.244.06.468.183.65.355.164.167.28.373.339.6.072.278.106.565.1.853L60.98 13l-1.975.133a5.253 5.253 0 0 0-1.96.44 2.808 2.808 0 0 0-1.157.937c-.25.366-.382.799-.38 1.242-.003.415.099.825.296 1.19.206.377.517.685.895.888.461.24.976.356 1.495.338.487.01.971-.07 1.428-.237a3.29 3.29 0 0 0 1.064-.676c.117-.112.228-.23.333-.354a1.6 1.6 0 0 0 .183.498c.15.259.382.46.659.574.305.123.633.184.963.178.1 0 .2-.003.295-.009.094-.005.188-.02.279-.042l.245-.059c.066-.015.131-.035.194-.06l.186-1.131c-.093.032-.19.055-.287.067a1.89 1.89 0 0 1-.237.017Zm-2.814-.76a3.25 3.25 0 0 1-.591.372c-.209.102-.43.175-.659.22a3.716 3.716 0 0 1-.718.067 1.909 1.909 0 0 1-.802-.152c-.207-.09-.38-.24-.499-.43a1.263 1.263 0 0 1-.169-.668 1.28 1.28 0 0 1 .22-.794c.184-.215.433-.363.71-.422a5.155 5.155 0 0 1 1.318-.136h1.479l-.008 1.677c-.086.097-.18.186-.28.266ZM71.491 9.607l-.05-.022a5.822 5.822 0 0 0-2.146-.388 4.15 4.15 0 0 0-2.103.557 4.14 4.14 0 0 0-1.563 1.614 5.197 5.197 0 0 0-.591 2.576 5.21 5.21 0 0 0 .448 2.247 3.35 3.35 0 0 0 1.284 1.461 3.74 3.74 0 0 0 2.001.515c.431.003.86-.054 1.276-.169a4.6 4.6 0 0 0 1.174-.523c.127-.078.254-.166.38-.257l.212.78h1.402V5.26l-1.724.237v4.11Zm-.904 6.947a3.537 3.537 0 0 1-1.208.245 2.74 2.74 0 0 1-1.385-.33 2.114 2.114 0 0 1-.879-1.013 4.233 4.233 0 0 1-.304-1.715c-.02-.601.096-1.199.338-1.749.207-.446.546-.818.972-1.064a2.994 2.994 0 0 1 1.512-.363 5.1 5.1 0 0 1 1.596.245c.083.026.174.061.262.093v5.207c-.287.175-.59.324-.904.444ZM75.85 17.998h1.722V9.213l-1.723.254v8.531ZM77.327 5.674a1.094 1.094 0 0 0-.582-.16 1.136 1.136 0 0 0-.592.16 1.24 1.24 0 0 0-.43.422 1.095 1.095 0 0 0-.161.583c-.002.208.054.413.16.591.104.177.252.323.431.423.18.101.384.154.591.152.205.002.406-.05.583-.152.174-.1.317-.247.414-.423.102-.18.154-.384.152-.59a1.141 1.141 0 0 0-.152-.584 1.193 1.193 0 0 0-.414-.422ZM87.844 11.266a3.694 3.694 0 0 0-1.495-1.529 4.638 4.638 0 0 0-2.29-.54 4.613 4.613 0 0 0-2.305.557 3.895 3.895 0 0 0-1.538 1.571 4.97 4.97 0 0 0-.549 2.4 5.18 5.18 0 0 0 .515 2.39c.324.65.84 1.184 1.479 1.529.687.36 1.454.54 2.23.524a4.76 4.76 0 0 0 2.331-.558 3.933 3.933 0 0 0 1.58-1.588c.392-.75.587-1.587.566-2.433a4.897 4.897 0 0 0-.524-2.323Zm-1.597 4.13c-.19.44-.51.809-.92 1.057a2.626 2.626 0 0 1-1.352.346 2.402 2.402 0 0 1-1.317-.355 2.38 2.38 0 0 1-.879-1.064 4.261 4.261 0 0 1-.32-1.757c-.02-.586.089-1.168.32-1.707.19-.423.505-.777.904-1.013a2.735 2.735 0 0 1 1.394-.338c.38-.01.757.063 1.106.211.306.138.574.35.778.617.218.29.375.62.464.971.106.411.157.834.152 1.259a4.206 4.206 0 0 1-.33 1.774Z"/></svg>
